web/assets/img/logo.svg

<?xml version="1.0" encoding="UTF-8" standalone="no"?>
<svg
   xmlns:dc="http://purl.org/dc/elements/1.1/"
   xmlns:cc="http://creativecommons.org/ns#"
   xmlns:rdf="http://www.w3.org/1999/02/22-rdf-syntax-ns#"
   xmlns:svg="http://www.w3.org/2000/svg"
   xmlns="http://www.w3.org/2000/svg"
   xmlns:sodipodi="http://sodipodi.sourceforge.net/DTD/sodipodi-0.dtd"
   xmlns:inkscape="http://www.inkscape.org/namespaces/inkscape"
   version="1.1"
   x="0"
   y="0"
   width="200"
   height="50"
   viewBox="0, 0, 500, 100"
   id="opencfp-logo"
   inkscape:version="0.91 r13725"
   sodipodi:docname="logo.svg">
  <metadata
     id="metadata3392">
    <rdf:RDF>
      <cc:Work
         rdf:about="">
        <dc:format>image/svg+xml</dc:format>
        <dc:type
           rdf:resource="http://purl.org/dc/dcmitype/StillImage" />
      </cc:Work>
    </rdf:RDF>
  </metadata>
  <defs
     id="defs3390" />
  <sodipodi:namedview
     pagecolor="#ffffff"
     bordercolor="#666666"
     borderopacity="1"
     objecttolerance="10"
     gridtolerance="10"
     guidetolerance="10"
     inkscape:pageopacity="0"
     inkscape:pageshadow="2"
     inkscape:window-width="1920"
     inkscape:window-height="1016"
     id="namedview3388"
     showgrid="false"
     inkscape:zoom="1.825"
     inkscape:cx="96.164384"
     inkscape:cy="25"
     inkscape:window-x="1920"
     inkscape:window-y="0"
     inkscape:window-maximized="1"
     inkscape:current-layer="g3362"
     inkscape:snap-text-baseline="true" />
  <g
     id="g3362">
    <g
       id="g3364"
       transform="translate(-35.616438,-4.109589)">
      <path
         class="megaphone-end"
         d="m 128.559,57.158 c -3.954,0 -7.158,-3.205 -7.158,-7.158 0,-3.953 3.204,-7.158 7.158,-7.158 3.953,0 7.157,3.205 7.157,7.158 0,3.953 -3.204,7.158 -7.157,7.158 z"
         id="path3366"
         inkscape:connector-curvature="0"
         style="fill:#110000" />
      <path
         class="megaphone-base"
         d="M 106.578,78.948 C 101.18,75.312 56.956,50.086 56.956,50.086 c 0,0 42.938,-24.925 49.991,-28.861 7.052,-3.937 22.909,2.592 22.393,28.402 -0.516,25.811 -17.365,32.957 -22.762,29.321 z"
         id="path3368"
         inkscape:connector-curvature="0"
         style="fill:#e9edee" />
      <path
         class="megaphone-base"
         d="m 62.459,47.244 0,0 c 3.148,-0.116 5.79,2.221 5.901,5.22 l 0.803,21.724 c 0.11,2.999 -2.352,5.525 -5.5,5.641 l 0,0 c -3.148,0.116 -5.79,-2.221 -5.9,-5.22 L 56.96,52.885 c -0.111,-2.999 2.351,-5.525 5.499,-5.641 z"
         id="path3370"
         inkscape:connector-curvature="0"
         style="fill:#e9edee" />
      <path
         class="megaphone-cover"
         d="m 55.142,37.056 20.04,0 c 5.27,0 9.543,3.864 9.543,8.629 l 0,8.63 c 0,4.765 -4.273,8.629 -9.543,8.629 l -20.04,0 c -5.27,0 -9.542,-3.864 -9.542,-8.629 l 0,-8.63 c 0,-4.765 4.272,-8.629 9.542,-8.629 z"
         id="path3372"
         inkscape:connector-curvature="0"
         style="fill:#99cc99" />
    </g>
    <text
       xml:space="preserve"
       style="font-style:normal;font-variant:normal;font-weight:bold;font-stretch:normal;font-size:74.99999842px;line-height:100%;font-family:'Liberation Serif';-inkscape-font-specification:'Liberation Serif, Bold';text-align:start;letter-spacing:0px;word-spacing:0px;writing-mode:lr;text-anchor:start;fill:#ffffff;fill-opacity:1;stroke:none;stroke-width:1px;stroke-linecap:butt;stroke-linejoin:miter;stroke-opacity:1;"
       x="129.89128"
       y="63.215637"
       id="text3394"
       sodipodi:linespacing="100%"
       transform="scale(0.85015067,1.1762621)"><tspan
         sodipodi:role="line"
         id="tspan3400">SNOW</tspan></text>
    <text
       xml:space="preserve"
       style="font-style:normal;font-variant:normal;font-weight:bold;font-stretch:normal;font-size:74.99999888px;line-height:100%;font-family:'Liberation Serif';-inkscape-font-specification:'Liberation Serif, Bold';text-align:start;letter-spacing:0px;word-spacing:0px;writing-mode:lr;text-anchor:start;fill:#99cc99;fill-opacity:1;stroke:none;stroke-width:1px;stroke-linecap:butt;stroke-linejoin:miter;stroke-opacity:1;"
       x="359.13934"
       y="63.215637"
       id="text3394-6"
       sodipodi:linespacing="100%"
       transform="scale(0.85015066,1.1762621)"><tspan
         sodipodi:role="line"
         id="tspan3420">CAMP</tspan></text>
  </g>
</svg>

<svg version="1.1" xmlns="http://www.w3.org/2000/svg" xmlns:xlink="http://www.w3.org/1999/xlink" x="0" y="0" width="200" height="50" viewBox="0, 0, 500, 100" id="opencfp-logo">
  <g>
    <g>
      <path class="megaphone-end" d="M128.559,57.158 C124.605,57.158 121.401,53.953 121.401,50 C121.401,46.047 124.605,42.842 128.559,42.842 C132.512,42.842 135.716,46.047 135.716,50 C135.716,53.953 132.512,57.158 128.559,57.158 z" fill="#110000"/>
      <path class="megaphone-base" d="M106.578,78.948 C101.18,75.312 56.956,50.086 56.956,50.086 C56.956,50.086 99.894,25.161 106.947,21.225 C113.999,17.288 129.856,23.817 129.34,49.627 C128.824,75.438 111.975,82.584 106.578,78.948 z" fill="#E9EDEE"/>
      <path class="megaphone-base" d="M62.459,47.244 L62.459,47.244 C65.607,47.128 68.249,49.465 68.36,52.464 L69.163,74.188 C69.273,77.187 66.811,79.713 63.663,79.829 L63.663,79.829 C60.515,79.945 57.873,77.608 57.763,74.609 L56.96,52.885 C56.849,49.886 59.311,47.36 62.459,47.244 z" fill="#E9EDEE"/>
      <path class="megaphone-cover" d="M55.142,37.056 L75.182,37.056 C80.452,37.056 84.725,40.92 84.725,45.685 L84.725,54.315 C84.725,59.08 80.452,62.944 75.182,62.944 L55.142,62.944 C49.872,62.944 45.6,59.08 45.6,54.315 L45.6,45.685 C45.6,40.92 49.872,37.056 55.142,37.056 z" fill="#FF7674"/>
    </g>
    <path class="base-text" d="M195.223,58.688 Q195.223,68.633 189.824,74.227 Q184.424,79.82 175.451,79.82 Q166.478,79.82 161.117,74.227 Q155.756,68.633 155.756,58.688 L155.756,42.839 Q155.756,32.934 161.117,27.282 Q166.478,21.63 175.412,21.63 Q184.347,21.63 189.785,27.282 Q195.223,32.934 195.223,42.839 z M184.23,42.762 Q184.23,36.702 181.977,33.614 Q179.724,30.525 175.412,30.525 Q171.061,30.525 168.886,33.594 Q166.711,36.663 166.711,42.762 L166.711,58.688 Q166.711,64.826 168.925,67.895 Q171.139,70.964 175.451,70.964 Q179.724,70.964 181.977,67.895 Q184.23,64.826 184.23,58.688 z" fill="#000000"/>
    <path class="base-text" d="M213.481,58.727 L213.481,79.005 L202.41,79.005 L202.41,22.446 L222.066,22.446 Q230.534,22.446 235.428,27.457 Q240.323,32.468 240.323,40.586 Q240.323,48.744 235.409,53.736 Q230.495,58.727 222.066,58.727 z M213.481,49.87 L222.066,49.87 Q225.6,49.87 227.465,47.268 Q229.33,44.665 229.33,40.664 Q229.33,36.624 227.484,33.963 Q225.639,31.302 222.066,31.302 L213.481,31.302 z" fill="#000000"/>
    <path class="base-text" d="M277.459,54.182 L258.464,54.182 L258.464,70.187 L280.8,70.187 L280.8,79.005 L247.393,79.005 L247.393,22.446 L280.722,22.446 L280.722,31.302 L258.464,31.302 L258.464,45.364 L277.459,45.364 z" fill="#000000"/>
    <path class="base-text" d="M326.133,79.005 L315.139,79.005 L297.853,42.839 L297.62,42.917 L297.62,79.005 L286.549,79.005 L286.549,22.446 L297.62,22.446 L314.906,58.572 L315.139,58.494 L315.139,22.446 L326.133,22.446 z" fill="#000000"/>
    <path class="primary-text" d="M370.222,60.786 L370.339,61.019 Q370.416,70.342 365.91,75.081 Q361.404,79.82 352.625,79.82 Q343.846,79.82 338.602,74.44 Q333.358,69.06 333.358,59.193 L333.358,42.296 Q333.358,32.468 338.427,27.049 Q343.497,21.63 352.004,21.63 Q361.016,21.63 365.619,26.447 Q370.222,31.263 370.378,40.703 L370.261,40.936 L359.617,40.936 Q359.85,35.381 358.102,32.934 Q356.354,30.487 352.004,30.487 Q348.275,30.487 346.293,33.4 Q344.312,36.313 344.312,42.218 L344.312,59.193 Q344.312,65.176 346.429,68.089 Q348.546,71.002 352.625,71.002 Q356.626,71.002 358.2,68.691 Q359.773,66.38 359.579,60.786 z" fill="#FF7674"/>
    <path class="primary-text" d="M407.281,55.503 L388.091,55.503 L388.091,79.005 L377.02,79.005 L377.02,22.446 L410.66,22.446 L410.66,31.302 L388.091,31.302 L388.091,46.685 L407.281,46.685 z" fill="#FF7674"/>
    <path class="primary-text" d="M427.558,58.727 L427.558,79.005 L416.487,79.005 L416.487,22.446 L436.143,22.446 Q444.611,22.446 449.506,27.457 Q454.4,32.468 454.4,40.586 Q454.4,48.744 449.486,53.736 Q444.573,58.727 436.143,58.727 z M427.558,49.87 L436.143,49.87 Q439.678,49.87 441.543,47.268 Q443.407,44.665 443.407,40.664 Q443.407,36.624 441.562,33.963 Q439.717,31.302 436.143,31.302 L427.558,31.302 z" fill="#FF7674"/>
  </g>
</svg>
